www/assets/icons/calendar_view_month.svg

<svg xmlns="http://www.w3.org/2000/svg" width="24" height="24" viewBox="0 0 24 24" fill='currentColor'><path d="M20 4H4c-1.1 0-2 .9-2 2v12c0 1.1.9 2 2 2h16c1.1 0 2-.9 2-2V6c0-1.1-.9-2-2-2M8 11H4V6h4zm6 0h-4V6h4zm6 0h-4V6h4zM8 18H4v-5h4zm6 0h-4v-5h4zm6 0h-4v-5h4z"/></svg>

<svg width="24" height="24" viewBox="0 0 24 24" xmlns="http://www.w3.org/2000/svg" fill='currentColor'><path d="M20 4H4C2.9 4 2 4.9 2 6V18C2 19.1 2.9 20 4 20H20C21.1 20 22 19.1 22 18V6C22 4.9 21.1 4 20 4ZM8 11H4V6H8V11ZM14 11H10V6H14V11ZM20 11H16V6H20V11ZM8 18H4V13H8V18ZM14 18H10V13H14V18ZM20 18H16V13H20V18Z"/></svg>
